X: 1
T: All Quiet Along the Potomac  [G]
C: words: Ethel Lynn Beer (1861)
C: music: J.H. Hewitt (1863)
R: waltz
M: 6/8
L: 1/8
K: G
"(D7)"D \
| "G"D>DD DED | "G"DG>B G2G | "D7"A>FD DEF | "G"AG2 "(D7)"z2D \
| "G"D>DD DED | "G"DGB G2G/G/ | "D"A>AA "A7"GE^C | "D"ED2 z2D |
| "A7"A>AA A>GA | "G"G>AB D2D/D/ | "C"E>FG "A7"G>FG | "D"BA2 "D7"z2D/D/ \
| "C"E>EE "D7"F2F/F/ | "Em"G>AB "D7"c2B/A/ | "G"G>GG "D7"B>BA | "G"AG2 "(D7)"z2D |
| "G"D3 "(D7)"D2D | "G"G3- G2G/G/ | "D7"A3 B2A | "G"G3- G2z |]\
y6 y6 y6 y6 y6 y6 y6 y6
